F[BALLADE
CUT[Der Spielmannssohn
    'Wach auf, wach auf, mein Schatz allein,]
CNR[wach auf, wach auf, es ist schon Tag!']
REG[Mitteleuropa, Deutschland (BRD) , Westfalen]
SRC[3, S. 178
    1842 aufgezeichnet (vor)]
KEY[Q1062D 16  F 3/4]
MEL[5_  -5_.11__-7_1_  2_231__0_.
    1  1_.55_.43_1_  2_132__0_
    1_  (2_3_4_)5__-5_-5_  (1_-7_1_)3_2_0_
    -5_  4_3_2_3_1__  -5_-5_1__0_ //] >>
FCT[Tage - Lied]
CMT[Melodievergleich zu Q0062, anderes Lied "Der treue Knabe" .]
